layouts/icon-pack/armor_clothing_hands.svg

<?xml version="1.0" encoding="UTF-8"?>
<svg width="1200pt" height="1200pt" version="1.1" viewBox="0 0 1200 1200" xmlns="http://www.w3.org/2000/svg">
 <path d="m767.32 987.77h98.766c20.961-0.23047 41.211-7.6055 57.41-20.914 16.195-13.305 27.359-31.742 31.652-52.258 7.9922-37.266 13.688-85.969 13.688-149.11v-519.98c0.28516-12.875-4.6289-25.32-13.633-34.523-9.0039-9.207-21.34-14.395-34.215-14.395s-25.211 5.1875-34.215 14.395c-9.0039 9.2031-13.918 21.648-13.633 34.523v177.82c0.09375 6.3164-2.2539 12.426-6.5547 17.051-4.3047 4.625-10.227 7.4062-16.531 7.7695-6.4727 0.21094-12.754-2.2188-17.398-6.7344-4.6445-4.5117-7.2578-10.719-7.2344-17.195v-322.69c0-12.055-4.7891-23.613-13.312-32.133-8.5195-8.5234-20.078-13.312-32.133-13.312h-1.8516c-12.059-0.007813-23.621 4.7773-32.148 13.301-8.5273 8.5234-13.32 20.086-13.32 32.145v321.8c0.09375 6.3203-2.2578 12.43-6.5625 17.059-4.3086 4.625-10.238 7.4062-16.547 7.7617-6.4648 0.19531-12.73-2.2383-17.359-6.75-4.6328-4.5156-7.2305-10.715-7.2031-17.18v-322.69c0-12.055-4.7891-23.613-13.312-32.133-8.5195-8.5234-20.078-13.312-32.133-13.312h-6.5859c-12.055 0-23.613 4.7891-32.133 13.312-8.5234 8.5195-13.312 20.078-13.312 32.133v321.8c0.089844 6.3164-2.2656 12.426-6.5703 17.051s-10.23 7.4062-16.539 7.7695c-6.4648 0.19531-12.73-2.2383-17.359-6.75-4.6328-4.5156-7.2305-10.715-7.2031-17.18v-322.69c-0.36328-15.996-9.1055-30.621-23.02-38.516-13.918-7.8945-30.957-7.8945-44.875 0-13.914 7.8945-22.656 22.52-23.02 38.516v292.43c0.11719 25 3.7773 49.855 10.875 73.828 9 31.031 14.742 67.969 14.812 111.89 0.11328 6.3398-2.2422 12.477-6.5664 17.117-4.3242 4.6367-10.281 7.418-16.613 7.75-6.4258 0.17188-12.648-2.2617-17.258-6.7461-4.6055-4.4844-7.207-10.637-7.2109-17.066 0-57-10.57-100.01-24.773-132.07-15.305-34.57-45.141-61.172-81.867-70.312-19.898-5.0859-40.875-4.0312-60.164 3.0234-12.727 4.6289-22.609 14.859-26.801 27.734-4.1875 12.879-2.2109 26.965 5.3555 38.195 21.375 31.734 51.211 85.969 72.656 165.21 6.9883 25.945 11.641 52.465 13.898 79.242 5.8594 67.969 28.125 241.8 105.94 320.46 17.727 18.055 27.629 42.363 27.562 67.664v40.125c0 6.3398 2.5195 12.422 7.0039 16.902 4.4805 4.4844 10.562 7.0039 16.902 7.0039h398.58c6.3438 0.007813 12.43-2.5078 16.918-6.9922s7.0117-10.57 7.0117-16.914v-52.523c-0.042969-8.7617-3.6406-17.129-9.9688-23.191-6.3242-6.0586-14.84-9.2969-23.594-8.9648-2.1797 0-4.3828 0.11719-6.6328 0.11719h-96.656c-6.3203 0.089844-12.43-2.2656-17.059-6.5703-4.6289-4.3047-7.418-10.23-7.7852-16.539-0.19531-6.4453 2.2266-12.699 6.7188-17.328 4.4922-4.625 10.668-7.2383 17.117-7.2344zm-154.48 47.672h-2.5312c-8.5156 0-16.383-4.543-20.641-11.918-4.2617-7.375-4.2617-16.461 0-23.836 4.2578-7.375 12.125-11.918 20.641-11.918h2.5312c8.5156 0 16.383 4.543 20.641 11.918 4.2617 7.375 4.2617 16.461 0 23.836-4.2578 7.375-12.125 11.918-20.641 11.918z" fill="#fff"/>
</svg>

<?xml version="1.0" encoding="UTF-8" standalone="no"?>
<!DOCTYPE svg PUBLIC "-//W3C//DTD SVG 1.1//EN" "http://www.w3.org/Graphics/SVG/1.1/DTD/svg11.dtd">
<svg width="100%" height="100%" viewBox="0 0 348 512" version="1.1" xmlns="http://www.w3.org/2000/svg" xmlns:xlink="http://www.w3.org/1999/xlink" xml:space="preserve" xmlns:serif="http://www.serif.com/" style="fill-rule:evenodd;clip-rule:evenodd;stroke-linejoin:round;stroke-miterlimit:2;">
    <g transform="matrix(1,0,0,1,-231.2,-56.0841)">
        <g transform="matrix(0.470663,0,0,0.470663,122.383,29.6874)">
            <path d="M767.32,987.77L866.086,987.77C887.047,987.54 907.297,980.165 923.496,966.856C939.691,953.551 950.855,935.114 955.148,914.598C963.14,877.332 968.836,828.629 968.836,765.488L968.836,245.508C969.121,232.633 964.207,220.188 955.203,210.985C946.199,201.778 933.863,196.59 920.988,196.59C908.113,196.59 895.777,201.777 886.773,210.985C877.769,220.188 872.855,232.633 873.14,245.508L873.14,423.328C873.234,429.644 870.886,435.754 866.585,440.379C862.281,445.004 856.358,447.785 850.054,448.148C843.582,448.359 837.3,445.93 832.656,441.414C828.012,436.902 825.398,430.695 825.422,424.219L825.422,101.529C825.422,89.474 820.633,77.916 812.11,69.396C803.59,60.873 792.032,56.084 779.977,56.084L778.125,56.084C766.066,56.076 754.504,60.861 745.977,69.385C737.45,77.908 732.657,89.471 732.657,101.53L732.657,423.33C732.751,429.65 730.399,435.76 726.095,440.389C721.786,445.014 715.857,447.795 709.548,448.151C703.083,448.346 696.818,445.912 692.189,441.401C687.556,436.885 684.958,430.686 684.986,424.221L684.986,101.531C684.986,89.476 680.197,77.918 671.674,69.398C663.154,60.874 651.596,56.086 639.541,56.086L632.955,56.086C620.9,56.086 609.342,60.875 600.822,69.398C592.298,77.917 587.51,89.476 587.51,101.531L587.51,423.331C587.6,429.647 585.244,435.757 580.939,440.382C576.635,445.007 570.709,447.788 564.4,448.151C557.936,448.347 551.67,445.913 547.041,441.401C542.409,436.886 539.811,430.686 539.838,424.221L539.838,101.531C539.475,85.535 530.733,70.91 516.818,63.015C502.9,55.121 485.861,55.121 471.943,63.015C458.029,70.91 449.287,85.535 448.923,101.531L448.923,393.961C449.041,418.961 452.701,443.816 459.798,467.789C468.798,498.82 474.54,535.758 474.61,579.679C474.724,586.019 472.368,592.156 468.044,596.796C463.72,601.433 457.763,604.214 451.431,604.546C445.005,604.718 438.783,602.285 434.173,597.8C429.567,593.316 426.966,587.163 426.962,580.734C426.962,523.734 416.392,480.724 402.189,448.664C386.884,414.094 357.048,387.492 320.322,378.352C300.424,373.266 279.447,374.321 260.158,381.376C247.431,386.004 237.549,396.235 233.357,409.11C229.17,421.989 231.146,436.075 238.713,447.305C260.088,479.039 289.924,533.274 311.369,612.515C318.357,638.46 323.01,664.98 325.267,691.757C331.126,759.726 353.392,933.557 431.207,1012.22C448.934,1030.27 458.836,1054.58 458.769,1079.88L458.769,1120.01C458.769,1126.35 461.288,1132.43 465.772,1136.91C470.253,1141.39 476.334,1143.91 482.674,1143.91L881.254,1143.91C887.598,1143.92 893.684,1141.4 898.172,1136.92C902.66,1132.43 905.184,1126.35 905.184,1120.01L905.184,1067.48C905.141,1058.72 901.544,1050.35 895.215,1044.29C888.891,1038.23 880.375,1034.99 871.621,1035.33C869.442,1035.33 867.239,1035.44 864.989,1035.44L768.333,1035.44C762.012,1035.53 755.903,1033.18 751.274,1028.87C746.645,1024.57 743.856,1018.64 743.488,1012.33C743.293,1005.89 745.715,999.635 750.207,995.006C754.699,990.381 760.875,987.768 767.324,987.772L767.32,987.77ZM612.84,1035.44L610.309,1035.44C601.793,1035.44 593.926,1030.9 589.668,1023.52C585.406,1016.15 585.406,1007.06 589.668,999.688C593.926,992.313 601.793,987.77 610.309,987.77L612.84,987.77C621.356,987.77 629.223,992.313 633.481,999.688C637.743,1007.06 637.743,1016.15 633.481,1023.52C629.223,1030.9 621.356,1035.44 612.84,1035.44Z" style="fill:white;fill-rule:nonzero;"/>
        </g>
    </g>
</svg>
